X: 203
T: Miss Brandling of Gosforth's Reel
C: Abraham Mackintosh
R: reel
M: C|
L: 1/8
Z: 2011 John Chambers <jc:trillian.mit.edu>
B: Abraham Mackintosh "A Collection of Strathspeys, Reels, Jigs &c.", Newcastle, after 1797, p.20
F: http://imslp.info/files/imglnks/usimg/a/a8/IMSLP80796-PMLP164326-Abraham_Mackintosh_coll.pdf
K: A
V: 1
e |\
cA A/A/A eAcA | eagf fedc | dB B/B/B fBdB | fefg bagf |
eA A/A/A aA cA | efga fedc | defg abaf | ecaf e2A ||
f |\
eAcA cecA | aAgA fAeA | fBdB dfdB | bBaB gBfB |
eAcA aAcA | efga fedc | defg abaf | ecaf e2A |]
V: 2 clef=bass middle=d
z |\
[a2c'2][a2c'2] [a2c'2]a2 | a2a2 a2a2 | [d2f2][d2f2] [d2f2][d2f2] | d2d2 d2d2 |
[a2c'2][a2c'2] [a2c'2]a2 | a2a2 a2a2 | d2d2 d2d2 | [a2c'2][a2d'2] [a2c'2][ac'] ||
z |\
a2z2 A2a=g | f2e2 d2c2 | d2B2 b3a | g2f2 e2d2 |
c2A2 c2A2 | a2a2 a2a2 | d2d2 d2d2 | [a2c'2][a2d'2] [a2c'2][ac'] |]

%%sep 2 1 500

